X:127
T: HOLZAPFELBAEUMCHEN, WIE SAUER IST DER WEIN
N: Z0127
O: Europa, Mitteleuropa, Deutschland, Rheinbayern
R: Erzaehlung, lustige Romanze
M: 2/4
L: 1/8
K: G
 |  | G2BG | d2c
c | BBAA | G2z2 |
G2BG | d2c
c | BBAA | G2z2 |
GGBG | d2c
c | B2AA | G2z2

@@@ Tune index: 9885
